build/assets/images/svg/icons/login/odnoklassniki.svg

<svg width="40" height="40" viewBox="0 0 40 40" fill="none" xmlns="http://www.w3.org/2000/svg">
<rect width="40" height="40" rx="20" fill="#F4F7FB"/>
<path d="M25.6311 22.0769C26.0525 21.6555 26.1127 21.0535 25.7515 20.4515C25.4505 19.9699 24.9087 19.7291 24.3066 19.8495C24.0658 19.9097 23.825 20.0301 23.5842 20.2107C21.718 21.4749 19.1896 21.4147 17.3234 20.1505C17.203 20.0903 17.0826 20.0301 16.9622 19.9699C16.3 19.6689 15.6378 19.7893 15.2765 20.3913C14.8551 20.9933 14.9153 21.6555 15.4571 22.1973C15.5775 22.3177 15.6979 22.3779 15.7581 22.4983L15.8184 22.5585C16.6612 23.2207 17.6846 23.6421 19.009 23.8227L18.2264 24.6054C17.5642 25.2676 16.8418 25.99 16.1796 26.6522C15.999 26.8328 15.7581 27.1338 15.7581 27.5552C15.7581 28.097 16.0592 28.6388 16.601 28.8796C16.7816 29 16.9622 29 17.1428 29C17.4438 29 17.805 28.8796 18.0458 28.5786C18.9488 27.6756 19.6712 26.9532 20.3936 26.2308C20.4538 26.1706 20.4538 26.1706 20.4538 26.1706C20.4538 26.1706 20.514 26.1706 20.514 26.2308C20.9956 26.7726 21.5374 27.2542 22.019 27.796C22.2598 28.0368 22.5006 28.2776 22.7414 28.5184C23.0424 28.8194 23.2832 28.9398 23.6444 28.9398C24.1862 29 24.7883 28.6388 25.0291 28.097C25.2699 27.6154 25.1495 27.0134 24.7281 26.6522C24.126 26.0502 23.524 25.388 22.8618 24.786L21.8384 23.7625C22.3802 23.7023 22.9822 23.5819 23.524 23.3411C24.427 23.0401 25.0893 22.6187 25.6311 22.0769Z" fill="#203686"/>
<path d="M20.4538 20.3913C23.0424 20.3913 25.1495 18.3445 25.1495 15.7558C25.1495 14.4916 24.6678 13.2876 23.7648 12.3846C22.8618 11.4816 21.718 11 20.514 11C17.9254 11 15.8786 13.107 15.8184 15.6354C15.8184 16.8997 16.3 18.0435 17.203 18.9465C18.0458 19.9097 19.1896 20.3913 20.4538 20.3913ZM19.1294 14.3712C19.4906 14.01 19.9722 13.8294 20.4538 13.8294C21.5374 13.8294 22.32 14.6722 22.32 15.6957C22.32 16.7793 21.4772 17.5619 20.4538 17.5619C19.3702 17.5619 18.5876 16.7191 18.5876 15.6957C18.5876 15.214 18.7682 14.7324 19.1294 14.3712Z" fill="#203686"/>
<path d="M25.6311 22.0769C26.0525 21.6555 26.1127 21.0535 25.7515 20.4515C25.4505 19.9699 24.9087 19.7291 24.3066 19.8495C24.0658 19.9097 23.825 20.0301 23.5842 20.2107C21.718 21.4749 19.1896 21.4147 17.3234 20.1505C17.203 20.0903 17.0826 20.0301 16.9622 19.9699C16.3 19.6689 15.6378 19.7893 15.2765 20.3913C14.8551 20.9933 14.9153 21.6555 15.4571 22.1973C15.5775 22.3177 15.6979 22.3779 15.7581 22.4983L15.8184 22.5585C16.6612 23.2207 17.6846 23.6421 19.009 23.8227L18.2264 24.6054C17.5642 25.2676 16.8418 25.99 16.1796 26.6522C15.999 26.8328 15.7581 27.1338 15.7581 27.5552C15.7581 28.097 16.0592 28.6388 16.601 28.8796C16.7816 29 16.9622 29 17.1428 29C17.4438 29 17.805 28.8796 18.0458 28.5786C18.9488 27.6756 19.6712 26.9532 20.3936 26.2308C20.4538 26.1706 20.4538 26.1706 20.4538 26.1706C20.4538 26.1706 20.514 26.1706 20.514 26.2308C20.9956 26.7726 21.5374 27.2542 22.019 27.796C22.2598 28.0368 22.5006 28.2776 22.7414 28.5184C23.0424 28.8194 23.2832 28.9398 23.6444 28.9398C24.1862 29 24.7883 28.6388 25.0291 28.097C25.2699 27.6154 25.1495 27.0134 24.7281 26.6522C24.126 26.0502 23.524 25.388 22.8618 24.786L21.8384 23.7625C22.3802 23.7023 22.9822 23.5819 23.524 23.3411C24.427 23.0401 25.0893 22.6187 25.6311 22.0769Z" fill="#203686"/>
</svg>

<svg width="40" height="40" fill="none" xmlns="http://www.w3.org/2000/svg"><rect width="40" height="40" rx="20" fill="#F4F7FB"/><path d="M25.631 22.077c.421-.422.482-1.024.12-1.626-.3-.481-.842-.722-1.444-.602a2.03 2.03 0 00-.723.362c-1.866 1.264-4.394 1.204-6.26-.06l-.362-.181c-.662-.301-1.324-.18-1.685.421-.422.602-.362 1.265.18 1.806.12.12.24.18.301.301l.06.06c.843.663 1.867 1.084 3.191 1.265l-.783.782-2.046 2.047c-.181.18-.422.482-.422.903 0 .542.301 1.084.843 1.325.18.12.361.12.542.12.3 0 .662-.12.903-.421l2.348-2.348.06-.06s.06 0 .06.06c.482.542 1.023 1.023 1.505 1.565l.722.722c.301.301.542.422.903.422.542.06 1.144-.301 1.385-.843.24-.482.12-1.084-.3-1.445-.603-.602-1.205-1.264-1.867-1.866l-1.024-1.024c.542-.06 1.144-.18 1.686-.42.903-.302 1.565-.723 2.107-1.265z" fill="#203686"/><path d="M20.454 20.391c2.588 0 4.695-2.046 4.695-4.635a4.735 4.735 0 00-1.384-3.371C22.862 11.482 21.718 11 20.514 11c-2.589 0-4.635 2.107-4.696 4.635 0 1.265.482 2.409 1.385 3.312.843.963 1.987 1.444 3.25 1.444zm-1.325-6.02a1.868 1.868 0 011.325-.542c1.083 0 1.866.843 1.866 1.867 0 1.083-.843 1.866-1.866 1.866-1.084 0-1.866-.843-1.866-1.866 0-.482.18-.964.541-1.325z" fill="#203686"/><path d="M25.631 22.077c.421-.422.482-1.024.12-1.626-.3-.481-.842-.722-1.444-.602a2.03 2.03 0 00-.723.362c-1.866 1.264-4.394 1.204-6.26-.06l-.362-.181c-.662-.301-1.324-.18-1.685.421-.422.602-.362 1.265.18 1.806.12.12.24.18.301.301l.06.06c.843.663 1.867 1.084 3.191 1.265l-.783.782-2.046 2.047c-.181.18-.422.482-.422.903 0 .542.301 1.084.843 1.325.18.12.361.12.542.12.3 0 .662-.12.903-.421l2.348-2.348.06-.06s.06 0 .06.06c.482.542 1.023 1.023 1.505 1.565l.722.722c.301.301.542.422.903.422.542.06 1.144-.301 1.385-.843.24-.482.12-1.084-.3-1.445-.603-.602-1.205-1.264-1.867-1.866l-1.024-1.024c.542-.06 1.144-.18 1.686-.42.903-.302 1.565-.723 2.107-1.265z" fill="#203686"/></svg>
